libs/ui/packages/crypto-icons/src/svg/GRC.svg

<svg width="24" height="24" viewBox="0 0 24 24" fill="none">
<path fill-rule="evenodd" clip-rule="evenodd" d="M12.0397 3.75C12.4372 3.98925 12.8317 4.23375 13.2322 4.467C15.1335 5.5695 17.0347 6.6705 18.9382 7.7685C19.0635 7.8405 19.119 7.92075 19.119 8.0745C19.1152 10.6935 19.116 13.3125 19.125 15.9315C19.125 16.1025 19.047 16.1737 18.9225 16.2457C16.6597 17.5552 14.3985 18.867 12.1372 20.1788C12.1027 20.199 12.072 20.226 12.0397 20.25H11.9572C11.2747 19.848 10.5922 19.4423 9.90748 19.044C8.29198 18.1058 6.67498 17.169 5.05648 16.2367C4.91923 16.158 4.87423 16.068 4.87498 15.9105C4.88248 13.3125 4.88398 10.7145 4.87873 8.11575C4.87873 7.92975 4.94248 7.836 5.09548 7.74825C7.33723 6.45525 9.57523 5.15775 11.814 3.86025C11.8657 3.83025 11.91 3.78675 11.9572 3.75H12.0397ZM14.1442 16.86C14.454 17.0722 14.757 17.295 15.069 17.52C15.0862 17.5125 15.1117 17.502 15.135 17.4893C16.1475 16.9035 17.1622 16.3193 18.1717 15.7267C18.2317 15.6915 18.2842 15.588 18.2842 15.5167C18.2895 13.1722 18.2887 10.8285 18.282 8.48475C18.2786 8.44395 18.2663 8.40438 18.2461 8.36877C18.2259 8.33316 18.1983 8.30236 18.165 8.2785C17.1675 7.692 16.1647 7.116 15.1665 6.53175C15.063 6.47175 15.0052 6.48975 14.9175 6.558C14.6752 6.74775 12.2932 8.20275 11.3602 8.763C10.6312 9.1995 9.91873 9.66 9.35473 10.3155C8.57698 11.2192 8.50423 12.4717 9.18448 13.4542C9.52123 13.9417 9.97048 14.3122 10.452 14.6415C10.836 14.9032 11.232 15.1463 11.622 15.3975C11.6115 15.4125 11.6055 15.4275 11.595 15.4335C11.0805 15.732 10.5675 16.0335 10.047 16.3237C9.99673 16.3515 9.89248 16.3237 9.83548 16.2877C9.28251 15.9309 8.77524 15.5077 8.32498 15.0278C7.02748 13.6673 6.76348 11.4375 7.70998 9.81075C8.14594 9.06031 8.75226 8.42291 9.47998 7.95C10.425 7.332 13.0575 5.76975 13.4062 5.556C13.3762 5.517 13.368 5.496 13.3522 5.48625C12.9382 5.24475 12.5272 4.99875 12.1072 4.7685C12.0457 4.73475 11.934 4.7475 11.8672 4.782C11.6362 4.90125 11.415 5.0385 11.1907 5.16975C10.9927 5.28525 10.7955 5.40225 10.5682 5.5365L11.6467 6.2145C11.0955 6.54 10.5742 6.852 10.047 7.15425C10.005 7.17825 9.91498 7.1595 9.86923 7.128C9.60811 6.95228 9.35345 6.76716 9.10573 6.573C8.99698 6.48675 8.92498 6.4785 8.80348 6.54975C7.82263 7.12333 6.83912 7.69233 5.85298 8.25675C5.74423 8.319 5.70898 8.39175 5.70898 8.51775C5.71273 10.8413 5.71198 13.1648 5.70823 15.4875C5.70823 15.612 5.74048 15.6855 5.85223 15.75C6.83173 16.311 7.80823 16.878 8.78248 17.4487C8.89048 17.5125 8.96248 17.5095 9.07123 17.4368C9.77023 16.9695 12.9682 14.9647 13.857 14.412C14.0077 14.3182 14.1345 14.184 14.271 14.0685L14.2485 14.016H10.929C11.2665 13.4295 11.5815 12.876 11.9077 12.3292C11.9377 12.2797 12.048 12.2587 12.1215 12.2587C13.6267 12.255 15.1327 12.2565 16.638 12.2565C16.698 12.2565 16.758 12.2633 16.8307 12.267C16.8345 12.3383 16.851 12.402 16.8375 12.4575C16.7385 12.8693 16.6725 13.2945 16.5225 13.6875C16.167 14.622 15.5077 15.3405 14.7045 15.894C13.827 16.4977 11.0332 18.144 10.5592 18.4268C10.5817 18.4665 10.5847 18.483 10.5945 18.489C10.8832 18.6593 11.193 18.8017 11.4562 19.0057C11.835 19.2982 12.165 19.2968 12.5437 19.0057C12.8167 18.7965 13.1362 18.6488 13.467 18.4545L12.369 17.7682C12.399 17.742 12.4162 17.721 12.438 17.7083C12.9405 17.4165 13.443 17.1233 13.95 16.8383C13.998 16.812 14.0955 16.8263 14.1442 16.86ZM16.3147 9.85725C16.5735 10.3162 16.7662 10.9065 16.7947 11.3618C16.2862 11.3618 15.7957 11.3647 15.3045 11.358C15.2595 11.3573 15.189 11.3055 15.1747 11.262C14.9347 10.521 14.4225 9.9945 13.8172 9.552C13.3875 9.23775 12.93 8.961 12.4852 8.667C12.4477 8.643 12.411 8.61675 12.3502 8.57475C12.4515 8.514 12.5302 8.46525 12.6112 8.418C13.0252 8.178 13.4362 7.93275 13.8562 7.70175C13.9312 7.65975 14.0662 7.63425 14.127 7.674C15.0045 8.25075 15.7882 8.92425 16.3147 9.85725Z" fill="#5411B3"/>
</svg>

<svg width="24" height="24" viewBox="0 0 24 24" fill="none"><path fill="#5411b3" fill-rule="evenodd" d="M12.04 3.75c.397.24.792.484 1.192.717q2.852 1.655 5.706 3.302c.126.071.181.152.181.306q-.007 3.928.006 7.857c0 .17-.078.242-.203.314q-3.393 1.965-6.785 3.933c-.034.02-.065.047-.097.071h-.083c-.682-.402-1.365-.808-2.05-1.206q-2.423-1.408-4.85-2.807c-.138-.079-.183-.169-.182-.326q.011-3.897.004-7.795c0-.186.063-.28.216-.368q3.362-1.94 6.719-3.888c.052-.03.096-.073.143-.11zm2.104 13.11c.31.212.613.435.925.66.017-.008.043-.018.066-.03 1.013-.586 2.027-1.17 3.037-1.763a.28.28 0 0 0 .112-.21q.009-3.517-.002-7.032a.28.28 0 0 0-.117-.207c-.997-.586-2-1.162-2.998-1.746-.104-.06-.162-.042-.25.026-.242.19-2.624 1.645-3.557 2.205-.729.437-1.441.897-2.005 1.553a2.53 2.53 0 0 0-.17 3.138c.336.488.785.858 1.267 1.188.384.261.78.504 1.17.756-.01.014-.017.03-.027.036-.514.298-1.027.6-1.548.89-.05.027-.155 0-.212-.036a8 8 0 0 1-1.51-1.26c-1.298-1.36-1.562-3.59-.615-5.217A5.5 5.5 0 0 1 9.48 7.95c.945-.618 3.577-2.18 3.926-2.394-.03-.039-.038-.06-.054-.07-.414-.241-.825-.487-1.245-.717-.061-.034-.173-.022-.24.013-.23.12-.452.256-.676.388-.198.115-.396.232-.623.367l1.079.678c-.552.325-1.073.637-1.6.94-.042.023-.132.005-.178-.027q-.391-.263-.763-.555c-.109-.086-.181-.095-.303-.023q-1.47.86-2.95 1.707c-.109.062-.144.135-.144.26q.005 3.486 0 6.97c0 .125.031.198.143.263q1.47.842 2.93 1.699c.108.063.18.06.29-.012.698-.468 3.896-2.472 4.785-3.025.15-.094.277-.228.414-.344l-.023-.052H10.93c.338-.586.652-1.14.979-1.687.03-.05.14-.07.213-.07q2.26-.004 4.517-.002c.06 0 .12.006.193.01.003.071.02.135.006.19-.099.412-.165.837-.314 1.23-.356.935-1.015 1.654-1.819 2.207-.877.604-3.67 2.25-4.145 2.533.023.04.026.056.036.062.288.17.598.313.861.517.379.292.709.29 1.088 0 .273-.21.592-.357.923-.552l-1.098-.686c.03-.026.047-.047.069-.06.502-.291 1.005-.585 1.512-.87.048-.026.146-.012.194.022m2.17-7.003c.26.46.452 1.05.48 1.505-.508 0-.998.003-1.49-.004-.045 0-.115-.053-.13-.096-.24-.741-.751-1.267-1.357-1.71-.43-.314-.887-.591-1.332-.885-.037-.024-.074-.05-.135-.092.101-.061.18-.11.261-.157.414-.24.825-.485 1.245-.716.075-.042.21-.068.271-.028.877.577 1.661 1.25 2.188 2.183" clip-rule="evenodd"/></svg>
